X: 31764
T: Patrick Kelly's
R: waltz
M: 3/4
K: Dmajor
(3ABc|:d2dc de|f2 d2 dB|A2 d2 F2|A2 G2 F2|
E4 ef|gf ed dc|A2 B2 G2|F2 G2 A2|
d2 dc de|f2 d2 dB|A2 d2 F2|A2 G2 F2|
E4 ef|gf ed dc|A2 B2 c2|1 d4 (3ABc:|2 d4 ag||
f4 A2|f4 A2|f2 g2 a2|b2 a2 f2|
e4 A2|e4 A2|e2 f2 g2|b2 a2 g2|
f4 A2|f4 A2|f2 g2 a2|b2 a2 f2|
e2 ed ef|gf ed cB|A2 B2 c2|d4 ag|
fa fd Ad|fa fd Ad|f2 g2 a2|b2 a2 f2|
ef ec Ac|ef ec Ac|e2 f2 g2|b2 a2 g2|
fa fd Ad|fa fd Ad|f2 g2 a2|b2 a2 f2|
e2 ed ef|gf ed cB|A2 B2 c2|d6||

